svg/furkot/freepik/road-map.svg

<svg viewBox="0 0 512 512" xmlns="http://www.w3.org/2000/svg"><path d="m330.08 247.119v-76.283l-148.16 39.525v130.804l97.59-26.034c-.033-.874-.066-1.749-.066-2.631-.001-31.403 21.549-57.866 50.636-65.381zm-148.16-133.209v61.511l148.16-39.525v-131.393l-99.808 26.627c1.483 5.555 2.285 11.385 2.285 17.402 0 31.401-21.55 57.864-50.637 65.378zm181.918 133.209c29.088 7.514 50.638 33.978 50.638 65.38 0 1.453-.062 2.891-.153 4.322l97.677 28.722v-130.555l-148.162-43.567zm-363.838 49.893 148.162 43.568v-130.555l-148.162-43.568zm198.799-248.481c0-18.614-15.144-33.758-33.758-33.758-18.615 0-33.759 15.144-33.759 33.758s15.144 33.758 33.759 33.758c18.614 0 33.758-15.144 33.758-33.758zm-101.275 0c0-6.613.972-13 2.753-19.044l-100.277-29.487v131.269l148.162 43.567v-60.926c-29.088-7.513-50.638-33.977-50.638-65.379zm-97.524 414.938 148.162 43.567v-131.269l-148.162-43.567zm363.838-85.589v90.553l148.162 43.567v-131.269l-108.226-31.824c-9.081 14.121-23.262 24.665-39.936 28.973zm16.88-65.381c0-18.614-15.144-33.758-33.759-33.758-18.614 0-33.758 15.144-33.758 33.758s15.144 33.758 33.758 33.758c18.615 0 33.759-15.144 33.759-33.758zm-91.49 34.977-107.308 28.627v131.394l148.16-39.526v-90.092c-17.236-4.452-31.825-15.559-40.852-30.403zm74.61-342.512v131.269l148.162 43.567v-131.269z"/></svg>

<svg xmlns="http://www.w3.org/2000/svg" viewBox="0 0 512 512"><path d="M330.08 247.119V170.836L181.92 210.361V341.165L279.51 315.131C279.477 314.257 279.444 313.382 279.444 312.5 279.443 281.097 300.993 254.634 330.08 247.119ZM181.92 113.91V175.421L330.08 135.896V4.503L230.272 31.13C231.755 36.685 232.557 42.515 232.557 48.532 232.557 79.933 211.007 106.396 181.92 113.91ZM363.838 247.119C392.926 254.633 414.476 281.097 414.476 312.499 414.476 313.952 414.414 315.39 414.323 316.821L512 345.543V214.988L363.838 171.421V247.119ZM0 297.012L148.162 340.58 148.162 210.025 0 166.457ZM198.799 48.531C198.799 29.917 183.655 14.773 165.041 14.773 146.426 14.773 131.282 29.917 131.282 48.531S146.426 82.289 165.041 82.289C183.655 82.289 198.799 67.145 198.799 48.531ZM97.524 48.531C97.524 41.918 98.496 35.531 100.277 29.487L0 0V131.269L148.162 174.836V113.91C119.074 106.397 97.524 79.933 97.524 48.531ZM0 463.469L148.162 507.036 148.162 375.767 0 332.2ZM363.838 377.88V468.433L512 512V380.731L403.774 348.907C394.693 363.028 380.512 373.572 363.838 377.88ZM380.718 312.499C380.718 293.885 365.574 278.741 346.959 278.741 328.345 278.741 313.201 293.885 313.201 312.499 313.201 331.113 328.345 346.257 346.959 346.257 365.574 346.257 380.718 331.113 380.718 312.499ZM289.228 347.476L181.92 376.103V507.497L330.08 467.971V377.879C312.844 373.427 298.255 362.32 289.228 347.476ZM363.838 4.964L363.838 136.233 512 179.8 512 48.531Z"/></svg>
